!!!!SEGMENT: sonata20-1.krn
!!!COM: Beethoven, Ludwig van
!!!CDT: 1770///-1827///
!!!OTL: Piano Sonata No. 20 in G major
!!!ODT: 1795///-1796///
!!!OPS: 49
!!!ONM: 2
!!!OMV: 1
!!!OMD: Allegro ma non troppo
!!!AGN: Sonata
**kern	**kern	**dynam
*staff2	*staff1	*staff1/2
*Ipiano	*Ipiano	*Ipiano
*>[A,A,B,B]	*>[A,A,B,B]	*>[A,A,B,B]
*>norep[A,B]	*>norep[A,B]	*>norep[A,B]
*>A	*>A	*>A
*clefF4	*clefG2	*
*k[f#]	*k[f#]	*
*G:	*G:	*
*M2/2	*M2/2	*
*MM120	*MM120	*
=1-	=1-	=1-
2GG 2G	2B 2d 2g	f
2r	12dL	.
.	12g	.
.	12bJ	.
.	12ddL	.
.	12cc	.
.	12aJ	.
=2	=2	=2
4r	4g'	.
(4B	(4g	p
4A	4f#	.
4G)	4g)	.
=3	=3	=3
4F#	4.a	.
4D	.	.
.	8a	.
4G	4.b/	.
4Fn	.	.
.	8b/	.
=4	=4	=4
4E	4dd	.
4F#X	4ccT	.
.	(16bqLL	.
.	16ccqJJ	.
8GL	4b)	.
8G	.	.
8B	4r	.
8dJ	.	.
!!LO:LB:g=original
=5	=5	=5
2G 2g	2b 2dd 2gg	f
2r	12ddL	.
.	12gg	.
.	12bbJ	.
.	12dddL	.
.	12ccc	.
.	12aaJ	.
*clefG2	*	*
=6	=6	=6
4r	4gg	.
8bL	(4gg	p
8ddJ	.	.
8aL	4ff#	.
8dd	.	.
8g	4gg)	.
8ddJ	.	.
=7	=7	=7
8f#L	4.aa	.
8dd	.	.
8d	.	.
8ddJ	8aa	.
8gL	4.bb	.
8dd	.	.
8fn	.	.
8ddJ	8bb	.
=8	=8	=8
8eL	4ddd	.
8g	.	.
8f#X	4cccT	.
8aJ	.	.
.	(16bbqLL	.
.	16cccqJJ	.
4g	(8bbL)	.
.	8ccc	.
4r	8ccc#	.
.	8dddJ)	.
=9	=9	=9
4r	(8ddd#L	.
.	8eeeJ)	.
4c 4e 4a	8r	.
.	(8eee	.
2r	8dddnL	.
.	8ccc	.
.	8bb	.
.	8aaJ)	.
!!LO:LB:g=original
=10	=10	=10
4r	(8ccc#L	.
.	8dddJ)	.
4B 4d 4g	8r	.
.	(8ddd	.
2r	8cccnL	.
.	8bb	.
.	8aa	.
.	8ggJ)	.
*clefF4	*	*
=11	=11	=11
4c	(8ff#L	.
.	8ee	.
4r	8dd	.
.	8ccJ	.
4d	8bL	.
.	8a	.
4r	8g	.
.	8f#J)	.
=12	=12	=12
4G	(4.gSSs<	.
4r	.	.
.	8a)	.
2r	(8bL	.
.	8cc	.
.	8cc#	.
.	8ddJ)	.
=13	=13	=13
4r	(8dd#L	p
.	8eeJ)	.
4C 4E 4A	8r	.
.	(8ee	.
2r	8ddnL	.
.	8cc	.
.	8b	.
.	8aJ)	.
=14	=14	=14
4r	(8dd#L	.
.	8eeJ)	.
4C# 4E 4A	8r	.
.	8ee	.
2r	(8eeL	.
.	8cc#	.
.	8a	.
.	8gJ)	.
!!LO:LB:g=original
=15	=15	=15
12DL	4f#	f
12F#	.	.
12AJ	.	.
*Xtuplet	*	*
12DL	12aaL	.
12F#	12ff#	.
12AJ	12ddJ	.
12DL	4ccn	.
12F#	.	.
12AJ	.	.
12DL	12aaL	.
12F#	12ff#	.
12AJ	12ccJ	.
=16	=16	=16
*	*Xtuplet	*
12DL	4b	.
12G	.	.
12BJ	.	.
12DL	12ggL	.
12G	12dd	.
12BJ	12bJ	.
12DL	4g	.
12G	.	.
12BJ	.	.
12DL	12ddL	.
12G	12b	.
12BJ	12gJ	.
=17	=17	=17
12DL	4f#	.
12F#	.	.
12AJ	.	.
12DL	12aaL	.
12F#	12ff#	.
12AJ	12ddJ	.
12DL	4cc	.
12F#	.	.
12AJ	.	.
12DL	12aaL	.
12F#	12ff#	.
12AJ	12ccJ	.
=18	=18	=18
12DL	4b	.
12G	.	.
12BJ	.	.
12DL	12ggL	.
12G	12dd	.
12BJ	12bJ	.
12DL	4g	.
12G	.	.
12BJ	.	.
12DL	12ddL	.
12G	12b	.
12BJ	12gJ	.
!!LO:LB:g=original
=19	=19	=19
12DL	4d	.
12F#	.	.
12AJ	.	.
12DL	12ddL	.
12G	12b	.
12BJ	12gJ	.
12DL	4d	.
12F#	.	.
12AJ	.	.
12DL	12ddL	.
12G	12b	.
12BJ	12gJ	.
=20	=20	=20
4D 4F#	4d	.
4r	4r	.
2r	8r	.
!	!	!LO:DY:t=%s dolce
.	8aL	p
.	8a	.
.	8aJ	.
*clefG2	*	*
=21	=21	=21
8f#L	(4dd	.
8a	.	.
8g	4cc#	.
8aJ	.	.
8f#L	4dd	.
8a	.	.
8c#	4ee)	.
8aJ	.	.
=22	=22	=22
8dL	(8ggL	.
8a	8ff#J)	.
8c#	4ee	.
8aJ	.	.
4A	8r	.
.	8aL	.
4r	8a	.
.	8aJ	.
=23	=23	=23
8gL	(4ee	.
8a	.	.
8f#	4dd	.
8aJ	.	.
8eL	4cc# 4ee	.
8a	.	.
8d	4dd 4ff#)	.
8aJ	.	.
!!LO:LB:g=original
=24	=24	=24
8c#L	8ee (8aaL	.
8a	8ggJ	.
8d	4dd 4ff#)	.
8aJ	.	.
4d	8r	.
.	(8aaL	.
4r	8gg	.
.	8ff#J)	.
=25	=25	=25
(2g 2b	(8ff#^L	.
.	8ee)	.
.	8ee'	.
.	8ee'J	.
4f#) 4a	8dd'L	.
.	(8aa	.
4r	8gg	.
.	8ff#J)	.
=26	=26	=26
(2g 2b	(8ff#^L	.
.	8ee)	.
.	8ee'	.
.	8ee'J	.
4f#) 4a	8dd'L	.
.	(8aa	.
4r	8gg	.
.	8ff#J)	.
=27	=27	=27
4r	(8ff#L	.
.	8eeJ)	.
4g	8r	.
.	8ee	.
4r	(8eeL	.
.	8ddJ)	.
4g#	8r	.
.	8dd	.
=28	=28	=28
4a	(8ddL	.
.	8cc#	.
4A	8b	.
.	8aJ	.
2r	8g#L<	.
.	8a	.
.	8b	.
.	8cc#J)	.
!!LO:LB:g=original
=29	=29	=29
8f#L	(4dd	.
8a	.	.
8g	4cc#	.
8aJ	.	.
8f#L	4dd	.
8a	.	.
8c#	4ee)	.
8aJ	.	.
=30	=30	=30
8dL	8dd (8ggL	.
8a	8ff#J	.
8A	4cc# 4ee)	.
8aJ	.	.
4A	8r	.
.	8aL	.
4r	8a	.
.	8aJ	.
=31	=31	=31
8gL	(4ee	.
8a	.	.
8f#	4dd	.
8aJ	.	.
8eL	4cc# 4ee	.
8a	.	.
8d	4dd 4ff#)	.
8aJ	.	.
=32	=32	=32
8c#L	8ee (8aaL	.
8a	8ggJ	.
8d	4dd 4ff#)	.
8aJ	.	.
4d	8r	.
.	(8aaL	.
4r	8gg	.
.	8ff#J)	.
=33	=33	=33
(2g 2b	(8ff#^L	.
.	8ee)	.
.	8ee'	.
.	8ee'J	.
4f#) 4a	8ddL	.
.	(8aa	.
4r	8gg	.
.	8ff#J)	.
!!LO:LB:g=original
=34	=34	=34
(2g 2b	(8ff#^L	.
.	8ee)	.
.	8ee'	.
.	8ee'J	.
4f#) 4a	8ddL	.
.	(8aa	.
4r	8gg	.
.	8ff#J)	.
*clefF4	*	*
=35	=35	=35
4r	(8ff#L	.
.	8ee	.
4G	8gg	.
.	8eeJ)	.
4A	(8eeL	.
.	8dd)	.
4AA	(8dd	.
.	8cc#J)	.
=36	=36	=36
*	*tuplet	*
.	(8ddq	.
4D	12aaL)	f
.	12gg	.
.	12ff#J	.
4r	12eeL	.
.	12dd	.
.	12cc#J	.
2r	12bL	.
.	12a	.
.	12gJ	.
.	12f#L	.
.	12e	.
.	12dJ	.
=37	=37	=37
12EL	4c#	.
12G	.	.
12AJ	.	.
12EL	4c#	.
12G	.	.
12AJ	.	.
12EL	4c#	.
12G	.	.
12AJ	.	.
12EL	4c#	.
12G	.	.
12AJ	.	.
!!LO:LB:g=original
=38	=38	=38
*	*Xtuplet	*
4D 4F#	12dL	.
.	12e	.
.	12f#J	.
4r	12gL	.
.	12a	.
.	12bJ	.
2r	12cc#L	.
.	12dd	.
.	12eeJ	.
.	12ff#L	.
.	12gg	.
.	12aaJ	.
=39	=39	=39
12C#L	4gg	.
12E	.	.
12AJ	.	.
12C#L	4gg	.
12E	.	.
12AJ	.	.
12C#L	4gg	.
12E	.	.
12AJ	.	.
12C#L	4gg	.
12E	.	.
12AJ	.	.
=40	=40	=40
.	(8ff#q	.
4D	12aaL)	.
.	12gg	.
.	12ff#J	.
4r	12eeL	.
.	12dd	.
.	12cc#J	.
2r	12bL	.
.	12a	.
.	12gJ	.
.	12f#L	.
.	12e	.
.	12dJ	.
!!LO:LB:g=original
=41	=41	=41
12DL	4cn	.
12F#	.	.
12AJ	.	.
12DL	4c	.
12F#	.	.
12AJ	.	.
12DL	4c	.
12F#	.	.
12AJ	.	.
12DL	4c	.
12F#	.	.
12AJ	.	.
=42	=42	=42
*^	*	*
4rA	2GG	12BL	.
.	.	12e	.
.	.	12gJ	.
4G	.	12bL	.
.	.	12g	.
.	.	12eJ	.
4F#	4AA	4d	.
.	.	(8f#q	.
4G	4AA	4e)	.
*v	*v	*	*
=43	=43	=43
4D 4F#	12dL	.
.	12e	.
.	12f#J	.
4r	12gL	.
.	12a	.
.	12bJ	.
2r	12cc#L	.
.	12dd	.
.	12eeJ	.
.	12ff#L	.
.	12gg	.
.	12aaJ	.
*clefG2	*	*
=44	=44	=44
12r	1gg 1bb	.
12GL	.	.
12AJ	.	.
12BL	.	.
12c#	.	.
12dJ	.	.
12eL	.	.
12f#	.	.
12gJ	.	.
12aL>	.	.
12b	.	.
12cc#J	.	.
!!LO:LB:g=original
=45	=45	=45
4dd'	4ff#' 4aa'	.
4g'	4ee' 4gg'	.
4a'	4dd' 4ff#'	.
4A'	4cc#' 4ee'	.
=46	=46	=46
1r	12aaL	.
.	12gg	.
.	12ff#J	.
.	12eeL	.
.	12dd	.
.	12cc#J	.
.	12bL	.
.	12a	.
.	12gJ	.
.	12f#L	.
.	12e	.
.	12dJ	.
*clefF4	*	*
=47	=47	=47
12r	1g 1b	.
12GGL	.	.
12AAJ	.	.
12BBL	.	.
12C#	.	.
12DJ	.	.
12EL	.	.
12F#	.	.
12GJ	.	.
12AL	.	.
12B	.	.
12c#J	.	.
=48	=48	=48
4d'	4f#' 4a'	.
4G'	4e' 4g'	.
4A'	4d' 4f#'	.
4AA'	4c#' 4e'	.
!!LO:LB:g=original
=49	=49	=49
12DL	4d	.
12F#	.	.
12AJ	.	.
*	*tuplet	*
12DL	12aaL	.
12F#	12ff#	.
12AJ	12ddJ	.
12DL	4cc#	.
12G	.	.
12AJ	.	.
12DL	12ggL	.
12G	12ee	.
12AJ	12cc#J	.
=50	=50	=50
12DL	4dd	.
12F#	.	.
12AJ	.	.
*	*Xtuplet	*
12DL	12aL	.
12F#	12f#	.
12AJ	12dJ	.
12DL	4c#	.
12G	.	.
12AJ	.	.
12DL	12gL	.
12G	12e	.
12AJ	12c#J	.
=51	=51	=51
12DL	4d	.
12F#	.	.
12AJ	.	.
12DL	12gL	.
12G	12e	.
12AJ	12c#J	.
12DL	4d	.
12F#	.	.
12AJ	.	.
12DL	12gL	.
12G	12e	.
12AJ	12c#J	.
=52	=52	=52
4D 4F#	4d	.
4DD 4D	4F#< 4A< 4d	.
4DD 4D	4F#< 4A< 4d	.
4r	4r	.
!!LO:LB:g=original
=53:|!|:	=53:|!|:	=53:|!|:
*>B	*>B	*>B
2D 2d	2fn\ 2a\ [2dd\	f
*	*tuplet	*
2r	12ddL]	.
.	12ffn	p
.	12eeJ	.
.	12ddL	.
.	12cc	.
.	12bJ	.
=54	=54	=54
8r	4a	.
8eL	.	.
8d	4g#	.
8eJ	.	.
8cL	4a	.
8e	.	.
8G#	4b	.
8eJ	.	.
=55	=55	=55
8AL	4cc	.
8e	.	.
8B	4dd	.
8eJ	.	.
8cL	4ee	.
8e	.	.
8B	4dd	.
8eJ	.	.
=56	=56	=56
.	(16ccqLL	.
.	16eeqJJ	.
12AL	[2aa)	f
12c	.	.
12e>J	.	.
12a>L	.	.
12e>	.	.
12cJ	.	.
*	*Xtuplet	*
4A	12aaL]	.
.	12ccc	p
.	12bbJ	.
4r	12aaL	.
.	12gg	.
.	12ff#J	.
*clefG2	*	*
!!LO:LB:g=original
=57	=57	=57
8r	4ee	.
8bL	.	.
8a	4dd#	.
8bJ	.	.
8gL	4ee	.
8b	.	.
8d#	4ff#	.
8bJ	.	.
=58	=58	=58
8eL	4.gg	.
8b	.	.
8e	.	.
8bJ	16ff#LL	.
.	16ggJJ	.
8cnL	8aaL	.
8a#	8gg	.
8c	8ff#	.
8a#J	8eeJ	.
=59	=59	=59
8BL	4dd#	.
8b	.	.
8b	8r	.
8bJ	8gg (8bb	.
8bL>	4ff#' 4aa')	.
8b	.	.
8b	8r	.
8bJ	8dd# (8ff#	.
=60	=60	=60
8bL>	4ee' 4gg')	.
8b	.	.
8b	8r	.
8bJ	8ee (8gg	.
8bL>	4dd#' 4ff#')	.
8b	.	.
8b	4ee 4gg	.
8bJ	.	.
=61	=61	=61
8BL	4dd# 4ff#	.
8b	.	.
8b	8r	.
8bJ	8gg (8bb	.
8bL>	4ff#' 4aa')	.
8b	.	.
8b	8r	.
8bJ	8dd# (8ff#	.
!!LO:LB:g=original
=62	=62	=62
8bL>	4ee' 4gg')	.
8b	.	.
8b	8r	.
8bJ	8ee (8gg	.
8bL>	4dd#' 4ff#')	.
8b	.	.
8b	4ee 4gg	.
8bJ	.	.
=63	=63	=63
(8bL	4dd# 4ff#	.
8a#	.	.
8b	4r	.
8a#J	.	.
8bL	2r	.
8an	.	.
8g	.	.
8f#J)	.	.
*clefF4	*	*
=64	=64	=64
(8eL	4ee 4gg	.
8d#	.	.
8e	4r	.
8d#J	.	.
8eL	2r	.
8dn	.	.
8c	.	.
8BJ)	.	.
=65	=65	=65
(8AL	(8cccL	<
8G#	8bb	.
8A	8ccc	.
8G#J	8bbJ	.
8AL	8cccL	.
8Gn	8bb	.
8F#	8aa	.
8EJ)	8ggJ)	.
=66	=66	=66
*^	*	*
2r	1D	(8ff#L	.
.	.	8ee	.
.	.	8dd	.
.	.	8ccJ	.
2c	.	8bL	.
.	.	8a	.
.	.	8g	.
.	.	8f#J)	.
*v	*v	*	*
!!LO:LB:g=original
=67	=67	=67
2GG 2G	2B 2d 2g	f
*	*tuplet	*
2r	12dL	.
.	12g	.
.	12bJ	.
.	12ddL	.
.	12cc	.
.	12aJ	.
=68	=68	=68
4r	4g'	.
(4B	(4g	p
4A	4f#	.
4G)	4g)	.
=69	=69	=69
4F#	4.a	.
4D	.	.
.	8a	.
4G	4.b/	.
4Fn	.	.
.	8b/	.
=70	=70	=70
4E	4dd	.
4F#X	4ccT	.
.	(16bqLL	.
.	16ccqJJ	.
8GL	4b)	.
8G	.	.
8B	4r	.
8dJ	.	.
=71	=71	=71
2G 2g	2b 2dd 2gg	f
2r	12ddL	.
.	12gg	.
.	12bbJ	.
.	12dddL	.
.	12ccc	.
.	12aaJ	.
*clefG2	*	*
!!LO:LB:g=original
=72	=72	=72
8r	4gg'	.
8ddL	.	.
8b	(4gg	p
8ddJ	.	.
8aL	4ff#	.
8dd	.	.
8g	4gg)	.
8ddJ	.	.
=73	=73	=73
8f#L	4aa	.
8dd	.	.
8d	8r	.
8ddJ	8aa	.
8gL	4bb	.
8dd	.	.
8fn	8r	.
8ddJ	8bb	.
=74	=74	=74
4e	8cccL	.
.	8gg	.
4fn	8aa	.
.	8ffnJ	.
4g	8eeL	.
.	8gg	.
4G	8ff	.
.	8ddJ	.
=75	=75	=75
.	(8ccq	.
4c	12ggL)	.
.	12ffn	.
.	12eeJ	.
*	*Xtuplet	*
4r	12ddL	.
.	12cc	.
.	12bJ	.
2r	12aL	.
.	12g	.
.	12fnJ	.
.	12eL	.
.	12d	.
.	12cJ	.
*clefF4	*	*
!!LO:LB:g=original
=76	=76	=76
12DL	4B	.
12Fn	.	.
12GJ	.	.
12DL	4B	.
12F	.	.
12GJ	.	.
12DL	4B	.
12F	.	.
12GJ	.	.
12DL	4B	.
12F	.	.
12GJ	.	.
=77	=77	=77
4C	12cL	.
.	12d	.
.	12eJ	.
4r	12fnL	.
.	12g	.
.	12aJ	.
2r	12bL	.
.	12cc	.
.	12ddJ	.
.	12eeL	.
.	12ffn	.
.	12ggJ	.
=78	=78	=78
12BBL	4ffn	.
12D	.	.
12GJ	.	.
12BBL	4ff	.
12D	.	.
12GJ	.	.
12BBL	4ff	.
12D	.	.
12GJ	.	.
12BBL	4ff	.
12D	.	.
12GJ	.	.
=79	=79	=79
4C	12eeL	.
.	12dd	.
.	12ccJ	.
4r	12bL	<
.	12a	.
.	12gJ	.
2r	12fnL	.
.	12e	.
.	12dJ	.
.	12cL	.
.	12B	.
.	12AJ	.
!!LO:LB:g=original
=80	=80	=80
12BBL<	4G#	.
12D	.	.
12EJ	.	.
12BBL<	4G#	.
12D	.	.
12EJ	.	.
12BBL<	4G#	.
12D	.	.
12EJ	.	.
12BBL<	4G#	.
12D	.	.
12EJ	.	.
=81	=81	=81
12CL	4A	.
12E	.	.
12AJ	.	.
12CL	2a	.
12E	.	.
12AJ	.	.
12C#L	.	.
12E	.	.
12AJ	.	.
12C#L	4gn	.
12E	.	.
12AJ	.	.
=82	=82	=82
12DL	4f#X	f
12F#	.	.
12AJ	.	.
*	*tuplet	*
12DL	12aaL	.
12F#	12ff#	.
12AJ	12ddJ	.
12DL	4cc	.
12F#	.	.
12AJ	.	.
12DL	12aaL	.
12F#	12ff#	.
12AJ	12ccJ	.
=83	=83	=83
12DL	4b	.
12G	.	.
12BJ	.	.
*	*Xtuplet	*
12DL	12ggL	.
12G	12dd	.
12BJ	12bJ	.
12DL	4g	.
12G	.	.
12BJ	.	.
12DL	12ddL	.
12G	12b	.
12BJ	12gJ	.
!!LO:LB:g=original
=84	=84	=84
12DL	4f#	.
12F#	.	.
12AJ	.	.
12DL	12aaL	.
12F#	12ff#	.
12AJ	12ddJ	.
12DL	4cc	.
12F#	.	.
12AJ	.	.
12DL	12aaL	.
12F#	12ff#	.
12AJ	12ccJ	.
=85	=85	=85
12DL	4b	.
12G	.	.
12BJ	.	.
12DL	12ggL	.
12G	12dd	.
12BJ	12bJ	.
12DL	4g	.
12G	.	.
12BJ	.	.
12DL	12ddL	.
12G	12b	.
12BJ	12gJ	.
=86	=86	=86
12DL	4d	.
12F#	.	.
12AJ	.	.
12DL	12ddL	.
12G	12b	.
12BJ	12gJ	.
12DL	4d	.
12F#	.	.
12AJ	.	.
12DL	12ddL	.
12G	12b	.
12BJ	12gJ	.
=87	=87	=87
4D 4F#	4d	.
4r	4r	.
2r	8r	.
.	8dL	p
.	8d	.
.	8dJ	.
!!LO:LB:g=original
=88	=88	=88
8BL	(4g	.
8d	.	.
8c	4f#	.
8dJ	.	.
8BL	4g	.
8d	.	.
8F#	4a)	.
8dJ	.	.
=89	=89	=89
8GL	(8ccL	.
8d	8bJ)	.
8F#	4a	.
8dJ	.	.
4D	8r	.
.	8dL	.
4r	8d	.
.	8dJ	.
=90	=90	=90
8cL	(4a	.
8d	.	.
8B	4g	.
8dJ	.	.
8AL	4f# 4a	.
8d	.	.
8G	4g) 4b	.
8dJ	.	.
=91	=91	=91
8F#L	(8a 8ddL>	.
8d	8ccJ	.
8G	4g) 4b	.
8dJ	.	.
8G	8r	.
8r	(8ddL	.
4r	8cc	.
.	8bJ)	.
=92	=92	=92
2c (2e	(8bL	>
.	8a)	.
.	8a'	.
.	8a'J	.
4B 4d)	(8gL>	]
.	8dd	.
4r	8cc	.
.	8bJ)	.
!!LO:LB:g=original
=93	=93	=93
2c (2e	(8bL	>
.	8a)	.
.	8a'	.
.	8a'J	.
4B 4d)	(8gL>	]
.	8dd	.
4r	8cc	.
.	8bJ)	.
=94	=94	=94
4r	(8bL	.
.	8aJ)	.
4c 4e	8r	.
.	8a	.
4r	(8aL	.
.	8gJ)	.
4c# 4e	8r	.
.	8g	.
=95	=95	=95
4d	8f#'L	.
.	8g'	.
4r	8a'	.
.	8b'J	.
2r	8ccn'L	.
.	8dd'	.
.	8ee'	.
.	8ff#'J	.
*clefG2	*	*
=96	=96	=96
8bL	(4gg	.
8dd	.	.
8cc	4ff#	.
8ddJ	.	.
8bL	4gg	.
8dd	.	.
8f#	4aa)	.
8ddJ	.	.
=97	=97	=97
8gL	(8cccL	.
8dd	8bbJ)	.
8f#	4aa	.
8ddJ	.	.
4d	8r	.
.	8ddL	.
4r	8dd	.
.	8ddJ	.
!!LO:LB:g=original
=98	=98	=98
8ccL	(4aa	.
8dd	.	.
8b	4gg	.
8ddJ	.	.
8aL	4ff# 4aa	.
8dd	.	.
8g	4gg 4bb)	.
8ddJ	.	.
=99	=99	=99
8f#L	8aa (8dddL	.
8dd	8cccJ	.
8g	4gg 4bb)	.
8ddJ	.	.
8g	8r	.
8r	(8dddL	.
4r	8ccc	.
.	8bbJ)	.
=100	=100	=100
*^	*	*
(4ee^	2cc	(8bbL	.
.	.	8aa)	.
4ff#	.	8aa'	.
.	.	8aa'J	.
4dd)	4b	8ggL	.
.	.	(8ddd	.
4r	4r	8ccc	.
.	.	8bbJ)	.
=101	=101	=101	=101
(4ee^	2cc	(8bbL	.
.	.	8aa)	.
4ff#	.	8aa'	.
.	.	8aa'J	.
4dd)	4b	8gg'L	.
.	.	(8ddd	.
4r	4r	8ccc	.
.	.	8bbJ)	.
*v	*v	*	*
=102	=102	=102
4r	(8bbL	.
.	8aa	.
4cc	8ccc	.
.	8aaJ)	.
4dd	(8aaL	.
.	8gg)	.
4d	(8gg	.
.	8ff#J)	.
!!LO:LB:g=original
=103	=103	=103
.	(8ggq	.
*	*tuplet	*
4g	12dddL)	f
.	12ccc	.
.	12bbJ	.
*	*Xtuplet	*
4r	12aaL	.
.	12gg	.
.	12ff#J	.
2r	12eeL	.
.	12dd	.
.	12ccJ	.
.	12bL	.
.	12a	.
.	12gJ	.
*clefF4	*	*
=104	=104	=104
12AL	4f#	.
12c	.	.
12dJ	.	.
12AL	4f#	.
12c	.	.
12dJ	.	.
12AL	4f#	.
12c	.	.
12dJ	.	.
12AL	4f#	.
12c	.	.
12dJ	.	.
=105	=105	=105
4G 4B	12gL	.
.	12a	.
.	12bJ	.
4r	12ccL	.
.	12dd	.
.	12eeJ	.
2r	12ff#L	.
.	12gg	.
.	12aaJ	.
.	12bbL	.
.	12ccc	.
.	12dddJ	.
=106	=106	=106
12F#L	4ccc	.
12A	.	.
12dJ	.	.
12F#L	4ccc	.
12A	.	.
12dJ	.	.
12F#L	4ccc	.
12A	.	.
12dJ	.	.
12F#L	4ccc	.
12A	.	.
12dJ	.	.
!!LO:LB:g=original
=107	=107	=107
.	(8bbq	.
4G 4B	12dddL)	.
.	12ccc	.
.	12bbJ	.
4r	12aaL	.
.	12gg	.
.	12ff#J	.
2r	12eeL	.
.	12dd	.
.	12ccJ	.
.	12bL	.
.	12a	.
.	12gJ	.
=108	=108	=108
12BBL	4fn	.
12D	.	.
12GJ	.	.
12BBL	4f	.
12D	.	.
12GJ	.	.
12BBL	4f	.
12D	.	.
12G#J	.	.
12BBL	4f	.
12D	.	.
12G#J	.	.
=109	=109	=109
12CL	12eL	.
12E	12a	.
12AJ	12ccJ	.
12CL	12eeL	.
12E	12cc	.
12AJ	12aJ	.
12DL	4g	.
12G	.	.
12BJ	.	.
12DL	4aT	.
12F#	.	.
12cJ	.	.
=110	=110	=110
4G 4B	12gL	.
.	12a	.
.	12bJ	.
4r	12ccL	.
.	12dd	.
.	12eeJ	.
2r	12ff#L	.
.	12gg	.
.	12aaJ	.
.	12bbL	.
.	12ccc	.
.	12dddJ	.
*clefG2	*	*
!!LO:LB:g=original
=111	=111	=111
12r	1ccc 1eee	.
12cL	.	.
12dJ	.	.
12eL	.	.
12f#	.	.
12gJ	.	.
12aL	.	.
12b	.	.
12ccJ	.	.
12ddL	.	.
12ee	.	.
12ff#J	.	.
=112	=112	=112
4gg'	4bb 4ddd	.
4cc'	4aa' 4ccc'	.
4dd'	4gg' 4bb'	.
4d'	4ff#' 4aa'	.
=113	=113	=113
1r	12dddL	.
.	12ccc	.
.	12bbJ	.
.	12aaL	.
.	12gg	.
.	12ff#J	.
.	12eeL	.
.	12dd	.
.	12ccJ	.
.	12bL	.
.	12a	.
.	12gJ	.
*clefF4	*	*
=114	=114	=114
12r	1cc 1ee	.
12CL<	.	.
12DJ	.	.
12EL	.	.
12F#	.	.
12GJ	.	.
12AL	.	.
12B	.	.
12cJ	.	.
12dL	.	.
12e	.	.
12f#J	.	.
!!LO:LB:g=original
=115	=115	=115
4g'	4b' 4dd'	.
4c'	4a' 4cc'	.
4d'	4g' 4b'	.
4D'	4f#' 4a'	.
=116	=116	=116
12GGL	4g	.
12BB	.	.
12DJ	.	.
12GGL	12dddL	.
12BB	12bb	.
12DJ	12ggJ	.
12GGL	4ff#	.
12C	.	.
12DJ	.	.
12GGL	12cccL	.
12C	12aa	.
12DJ	12ff#J	.
=117	=117	=117
12GGL	4gg	.
12BB	.	.
12DJ	.	.
12GGL	12ddL	.
12BB	12b	.
12DJ	12gJ	.
12GGL	4f#	.
12C	.	.
12DJ	.	.
12GGL	12ccL	.
12C	12a	.
12DJ	12f#J	.
=118	=118	=118
12GGL	4g	.
12BB	.	.
12DJ	.	.
12GGL	12dddL	.
12BB	12bb	.
12DJ	12ggJ	.
12GGL	4ff#	.
12C	.	.
12DJ	.	.
12GGL	12cccL	.
12C	12aa	.
12DJ	12ff#J	.
!!LO:LB:g=original
=119	=119	=119
12GGL	4gg	.
12BB	.	.
12DJ	.	.
12GGL	12ddL	.
12BB	12b	.
12DJ	12gJ	.
12GGL	4f#	.
12C	.	.
12DJ	.	.
12GGL	12ccL	.
12C	12a	.
12DJ	12f#J	.
=120	=120	=120
12GGL	4g	.
12BB	.	.
12DJ	.	.
12GGL	12ccL	.
12C	12a	.
12DJ	12f#J	.
12GGL	4g	.
12BB	.	.
12DJ	.	.
12GGL	12ccL	.
12C	12a	.
12DJ	12f#J	.
=121	=121	=121
4GG	4g	.
4r	4r	.
4DD 4D	4a 4cc 4dd 4ff#	.
4r	4r	.
=122	=122	=122
4GGG 4GG	4b 4dd 4gg	.
4r	4r	.
2r;	2r;	.
==	==	==
*-	*-	*-
!!!RDF**kern: > = above
!!!RDF**kern: < = below
!!!verovio: beamFrenchStyle
!!!LOR: Durand 1915, plates 9327/9328, Paul Dukas, ed.
!!!PED: Dukas, Paul
!!!URL-github: https://github.com/craigsapp/beethoven-piano-sonatas/blob/main/kern/sonata20-1.krn
!!!URL-vhv: https://verovio.humdrum.org/?file=beethoven/sonatas/sonata20-1.krn
!!!URL-pdf: https://github.com/craigsapp/beethoven-piano-sonatas/blob/master/reference-edition/sonata20-1.pdf
!!!ENC: Craig Stuart Sapp
!!!END: 2007/11/27
!!!EED: Craig Stuart Sapp
!!!EEV: 2020/08/21
